X:1
T:Freddie Freeloader
T:Freedie Freeloader
T: Miles Davis
C:Miles Davis
Z:All Rights Reserved
L:1/8
Q:1/4=120
M:4/4
K:Bb
V:1 treble nm="MusicXML Part"
%%MIDI program 0
%%MIDI control 7 102
%%MIDI control 10 64
V:1
|:"Bb7" G3 F- F4- | F8 | G3 F- F4- | F8 |"Eb7" c3 B- B4- | B8 |"Bb7" G3 F- F4- | F6 _A2 | %8
"F7" A6"Bb7" _AG- |"Eb7" G6 F_G- |"Ab7" G8- | G8 :|2"F7" A6"Bb7" _AG- ||"Eb7" G6 F2 | %14
"Bb7" G3 F- F4- | F8 :| %16

